X:2994
T:Jenny Sutan
O:england
M:2/2
L:1/8
S:Armitt MS
K:A major
AA/2A/2 Ac ecec|AA/2A/2 Ac dBGB|AA/2A/2 Ac ecec|dfdB c2A2:||:aAaA gAgA|f
gaf ecBA|aAaA gAgA|fgaf f2e2|affa geeg|fddf edBc|AA/2A/2 Ac ecec|dfega2A
2||


